assets/img/contact-pen.svg

<svg width="18" height="18" viewBox="0 0 22 22" fill="none" xmlns="http://www.w3.org/2000/svg">
<circle cx="11" cy="11" r="10.5" stroke="white"/>
<path d="M15.8108 4.69563L15.9412 4.56525C16.0393 4.46718 16.1558 4.38939 16.284 4.33634C16.4122 4.28328 16.5496 4.256 16.6883 4.25604C16.8271 4.25608 16.9644 4.28345 17.0926 4.33658C17.2208 4.38971 17.3372 4.46756 17.4353 4.56569C17.5333 4.66382 17.6111 4.7803 17.6642 4.9085C17.7172 5.03669 17.7445 5.17407 17.7445 5.31281C17.7444 5.45155 17.7171 5.58892 17.6639 5.71708C17.6108 5.84524 17.533 5.96168 17.4348 6.05975L17.3045 6.18925C17.5275 6.43938 17.6464 6.76534 17.6368 7.10033C17.6272 7.43531 17.4898 7.75393 17.2528 7.99088L8.24733 16.9973C8.19104 17.0533 8.12056 17.0929 8.04346 17.1119L4.54346 17.9869C4.47021 18.0051 4.3935 18.0041 4.32076 17.9839C4.24803 17.9637 4.18176 17.9251 4.12838 17.8717C4.07501 17.8183 4.03636 17.7521 4.01617 17.6793C3.99599 17.6066 3.99497 17.5299 4.01321 17.4566L4.88821 13.9566C4.90735 13.8798 4.94697 13.8097 5.00283 13.7536L13.4396 5.31688C13.3552 5.25749 13.2526 5.22984 13.1498 5.2388C13.047 5.24777 12.9507 5.29278 12.8778 5.36588L9.99733 8.24725C9.95666 8.28793 9.90837 8.32019 9.85522 8.34221C9.80207 8.36422 9.74511 8.37555 9.68758 8.37555C9.63006 8.37555 9.57309 8.36422 9.51995 8.34221C9.4668 8.32019 9.41851 8.28793 9.37783 8.24725C9.33716 8.20657 9.30489 8.15828 9.28288 8.10514C9.26086 8.05199 9.24953 7.99503 9.24953 7.9375C9.24953 7.87997 9.26086 7.82301 9.28288 7.76986C9.30489 7.71672 9.33716 7.66843 9.37783 7.62775L12.2601 4.74725C12.4972 4.51014 12.8161 4.37277 13.1512 4.36333C13.4864 4.35389 13.8125 4.47311 14.0626 4.6965C14.303 4.48163 14.6141 4.36279 14.9365 4.36262C15.259 4.36246 15.5702 4.481 15.8108 4.69563Z" fill="white"/>
</svg>

<svg xmlns="http://www.w3.org/2000/svg" width="18" height="18" viewBox="0 0 22 22" fill="none" xmlns:v="https://vecta.io/nano"><circle cx="11" cy="11" r="10.5" stroke="#fff"/><path d="M15.811 4.696l.13-.13c.098-.098.215-.176.343-.229s.266-.08.404-.08.276.027.404.081.245.131.343.229a1.06 1.06 0 0 1 .309.747c0 .139-.027.276-.081.404s-.131.245-.229.343l-.13.13c.223.25.342.576.332.911a1.31 1.31 0 0 1-.384.891l-9.005 9.006c-.056.056-.127.096-.204.115l-3.5.875c-.073.018-.15.017-.223-.003s-.139-.059-.192-.112-.092-.12-.112-.192-.021-.149-.003-.223l.875-3.5c.019-.077.059-.147.115-.203l8.437-8.437c-.084-.059-.187-.087-.29-.078a.44.44 0 0 0-.272.127l-2.88 2.881a.44.44 0 0 1-.31.128.44.44 0 0 1-.31-.128.44.44 0 0 1-.128-.31.44.44 0 0 1 .128-.31l2.882-2.88c.237-.237.556-.374.891-.384s.661.11.911.333a1.31 1.31 0 0 1 1.748-.001z" fill="#fff"/></svg>
